src/icons/SVG/32px/Universe_WoodSaw_32px.svg

<svg width="32" height="32" viewBox="0 0 32 32" fill="none" xmlns="http://www.w3.org/2000/svg">
<g id="Square"> </g>
<g id="Icon">
<path id="Union" fill-rule="evenodd" clip-rule="evenodd" d="M4.03621 21.6928C3.64568 22.0833 3.64568 22.7165 4.03621 23.107L9.69306 28.7639C10.0836 29.1544 10.7168 29.1544 11.1073 28.7639L14.2118 25.6593C14.4262 25.7616 14.6737 25.786 14.9097 25.7206C15.2569 25.6245 15.5256 25.349 15.613 24.9995L16.4129 21.7998L19.006 21.1072C19.4351 20.9926 19.7372 20.6087 19.7477 20.1646L19.8093 17.5454L21.7335 16.9523C22.1665 16.8188 22.4557 16.4108 22.4381 15.958L22.3333 13.248L24.3338 12.8312C24.8044 12.7332 25.1387 12.314 25.1296 11.8334L25.0841 9.41959L27.1689 8.64522C27.4882 8.52664 27.7251 8.25375 27.7978 7.92103C27.8704 7.5883 27.7687 7.2415 27.5279 7.00069L23.8352 3.30802C23.4447 2.9175 22.8115 2.9175 22.421 3.30802L7.80744 17.9216L4.03621 21.6928ZM10.4002 26.6425L6.15753 22.3999L8.51455 20.0429L12.7572 24.2855L10.4002 26.6425ZM9.10381 22.2821C8.90854 22.0868 8.59196 22.0868 8.3967 22.2821C8.20144 22.4773 8.20144 22.7939 8.3967 22.9892L9.81091 24.4034C10.0062 24.5986 10.3228 24.5986 10.518 24.4034C10.7133 24.2081 10.7133 23.8915 10.518 23.6963L9.10381 22.2821ZM14.101 22.8009L14.6155 20.7432C14.7037 20.3904 14.9763 20.1134 15.3276 20.0196L17.7659 19.3683L17.8268 16.7785C17.8369 16.3484 18.1209 15.9731 18.5319 15.8463L20.4099 15.2674L20.3021 12.4801C20.2833 11.9923 20.6195 11.5621 21.0974 11.4625L23.1144 11.0423L23.0711 8.74803C23.0631 8.3232 23.3244 7.93969 23.7227 7.79174L25.0117 7.31297L23.1281 5.42934L9.92877 18.6287L11.2251 19.925L16.1749 14.9753C16.3701 14.78 16.6867 14.78 16.882 14.9753C17.0772 15.1705 17.0772 15.4871 16.882 15.6824L11.9322 20.6321L14.101 22.8009Z" fill="black"/>
</g>
</svg>

<svg xmlns="http://www.w3.org/2000/svg" viewBox="0 0 32 32">
  <g id="Square"> </g>
  <path fill-rule="evenodd" d="M4.036 21.693a1 1 0 000 1.414l5.657 5.657a1 1 0 001.414 0l3.105-3.105a1 1 0 001.401-.66l.8-3.2 2.593-.692a1 1 0 00.742-.942l.061-2.62 1.924-.593a1 1 0 00.705-.994l-.105-2.71 2-.417a1 1 0 00.797-.998l-.046-2.413 2.085-.775a1 1 0 00.359-1.644l-3.693-3.693a1 1 0 00-1.414 0L7.807 17.922l-3.77 3.77zm6.364 4.95L6.158 22.4l2.357-2.357 4.242 4.242-2.357 2.357zm-1.296-4.36a.5.5 0 10-.707.706l1.414 1.414a.5.5 0 00.707-.707l-1.414-1.414zm4.997.518l.514-2.058a1 1 0 01.713-.723l2.438-.652.06-2.59a1 1 0 01.706-.932l1.878-.579-.108-2.787a1 1 0 01.795-1.018l2.017-.42-.043-2.294a1 1 0 01.652-.956l1.289-.479-1.884-1.884-13.2 13.2 1.297 1.296 4.95-4.95a.5.5 0 11.707.707l-4.95 4.95 2.169 2.169z"/>
</svg>
